vendor/shopware/storefront/Resources/app/storefront/dist/assets/icon/default/lock-key.svg

<svg xmlns="http://www.w3.org/2000/svg" width="24" height="24" viewBox="0 0 24 24">
  <path fill="#758CA3" fill-rule="evenodd" d="M18,14 L18,13 C18,12.4477153 18.4477153,12 19,12 C19.5522847,12 20,12.4477153 20,13 L20,14 L21,14 C21.5522847,14 22,13.5522847 22,13 L22,11 C22,10.4477153 21.5522847,10 21,10 L11.5839563,10 C10.8123997,8.23409522 9.05031904,7 7,7 C4.23857625,7 2,9.23857625 2,12 C2,14.7614237 4.23857625,17 7,17 C9.05031904,17 10.8123997,15.7659048 11.5839563,14 L14,14 L14,13 C14,12.4477153 14.4477153,12 15,12 C15.5522847,12 16,12.4477153 16,13 L16,14 L18,14 Z M21,8 C22.6568542,8 24,9.34314575 24,11 L24,13 C24,14.6568542 22.6568542,16 21,16 L12.7457444,16 C11.4611009,17.8444497 9.33628326,19 7,19 C3.13400675,19 6.21724894e-16,15.8659932 0,12 C-6.21724894e-16,8.13400675 3.13400675,5 7,5 C9.33628326,5 11.4611009,6.15555031 12.7457444,8 L21,8 Z M5,13 C4.44771525,13 4,12.5522847 4,12 C4,11.4477153 4.44771525,11 5,11 C5.55228475,11 6,11.4477153 6,12 C6,12.5522847 5.55228475,13 5,13 Z"/>
</svg>

<svg xmlns="http://www.w3.org/2000/svg" width="24" height="24" viewBox="0 0 24 24"><path fill="#758CA3" fill-rule="evenodd" d="M18 14v-1c0-.5523.4477-1 1-1s1 .4477 1 1v1h1c.5523 0 1-.4477 1-1v-2c0-.5523-.4477-1-1-1h-9.416C10.8124 8.2341 9.0503 7 7 7c-2.7614 0-5 2.2386-5 5s2.2386 5 5 5c2.0503 0 3.8124-1.2341 4.584-3H14v-1c0-.5523.4477-1 1-1s1 .4477 1 1v1h2zm3-6c1.6569 0 3 1.3431 3 3v2c0 1.6569-1.3431 3-3 3h-8.2543C11.4611 17.8444 9.3363 19 7 19c-3.866 0-7-3.134-7-7s3.134-7 7-7c2.3363 0 4.4611 1.1556 5.7457 3H21zM5 13c-.5523 0-1-.4477-1-1s.4477-1 1-1 1 .4477 1 1-.4477 1-1 1z"/></svg>
